!!!COM: Anonymous
!!!OTL: Si vous voullez
!!!AGN: Song; Chanson
!!!SCT: Ano3231
!!!SCA: Ano3231
!!!SMS: Leuven Chansonnier
!!!folio: 52v-54r
!!!voices: 3
**kern	**text	**text	**kern	**text	**text	**kern	**text	**text
*staff3	*staff3	*staff3	*staff2	*staff2	*staff2	*staff1	*staff1	*staff1
*Ivox	*	*	*Ivox	*	*	*Ivox	*	*
*I"Contra	*	*	*I"Tenor	*	*	*I"Discantus	*	*
*I'C	*	*	*I'T	*	*	*I'D	*	*
*>[A,B]	*>[A,B]	*>[A,B]	*>[A,B]	*>[A,B]	*>[A,B]	*>[A,B]	*>[A,B]	*>[A,B]
*>A	*>A	*>A	*>A	*>A	*>A	*>A	*>A	*>A
*clefF4	*	*	*clefGv2	*	*	*clefG2	*	*
*k[b-]	*	*	*k[b-]	*	*	*k[]	*	*
*M3/1	*	*	*M3/1	*	*	*M3/1	*	*
*met(O)	*	*	*met(O)	*	*	*met(O)	*	*
=1-	=1-	=1-	=1-	=1-	=1-	=1-	=1-	=1-
!!LO:TX:X=-60:Z=12:t=Form&colon; virelai
1r	.	.	1r	.	.	1r	.	.
1r	.	.	1r	.	.	1r	.	.
[1C	Si	Si	[1c	Si	Si	[1c	Si	Si
=2	=2	=2	=2	=2	=2	=2	=2	=2
1C]	.	.	0c]	.	.	2c]	.	.
.	.	.	.	.	.	2d	.	.
1C	vous	non	.	.	.	1e	.	.
1D	.	.	1A	vous	non	[1f	vous	non
=3	=3	=3	=3	=3	=3	=3	=3	=3
0BB-	.	.	1.B-	.	.	2f]	.	.
.	.	.	.	.	.	2d	.	.
.	.	.	.	.	.	1d	.	.
.	.	.	2G	.	.	.	.	.
[1E-i	voul-	qu'il	1G	voul-	qu'il	[1g	voul-	qu'il
=4	=4	=4	=4	=4	=4	=4	=4	=4
2E-]	.	.	1.c	-lez	vous	2g]	.	.
2C	.	.	.	.	.	2e	.	.
1C	.	.	.	.	.	1e	.	.
.	.	.	2d	.	.	.	.	.
1C	-lez	vous	1e	.	.	[1cc	-lez	vous
=5	=5	=5	=5	=5	=5	=5	=5	=5
1.F	que	plai-	1.f	que	plai-	2cc]	.	.
.	.	.	.	.	.	2a	.	.
.	.	.	.	.	.	1a	que	.
4G	.	.	2d	.	.	.	.	.
4A	.	.	.	.	.	.	.	.
[1B-	je	-se	1d	je	-se	[1dd	je	plai-
=6	=6	=6	=6	=6	=6	=6	=6	=6
2B-]	.	.	0g	vous	ma	2dd]	.	.
2G	.	.	.	.	.	1b	vous	-se
1G	vous	ma	.	.	.	.	.	.
.	.	.	.	.	.	2g	.	.
[1c	a-	da-	2.e	a-	da-	1g	a-	ma
.	.	.	4d	.	.	.	.	.
=7	=7	=7	=7	=7	=7	=7	=7	=7
2c]	.	.	2e	.	.	1cc	.	da-
2F	.	.	2f	.	.	.	.	.
2G	.	.	0d	.	.	2b	.	.
2D	.	.	.	.	.	1a	.	.
2F	.	.	.	.	.	.	.	.
2G	.	.	.	.	.	4g	.	.
.	.	.	.	.	.	4f	.	.
=8	=8	=8	=8	=8	=8	=8	=8	=8
0.C	-me	-me	1c	-me	-me	0e	-me	-me
.	.	.	1r	.	.	.	.	.
.	.	.	[1c	Bien	Gra-	1r	.	.
=9	=9	=9	=9	=9	=9	=9	=9	=9
1r	.	.	2c]	.	.	1cc	Bien	Gra-
.	.	.	2d	.	.	.	.	.
1C	Bien	Gra-	1e	et	-ci-	1cc	et	-ci-
2BB-	et	-ci-	1f	le-	-eu-	1dd	le-	-eu-
2D	le-	-eu-	.	.	.	.	.	.
=10	=10	=10	=10	=10	=10	=10	=10	=10
[0.C	-al-	-se-	0g	-al-	-se-	0.ee	-al-	-se-
.	.	.	[1g	-ment	-ment	.	.	.
=11	=11	=11	=11	=11	=11	=11	=11	=11
1C]	.	.	0g]	.	.	1ee	-ment	-ment
0G	-ment	-ment	.	.	.	2dd	.	.
.	.	.	.	.	.	1dd	sans	vous
.	.	.	1g	sans	vous	.	.	.
.	.	.	.	.	.	4cc	.	.
.	.	.	.	.	.	4b	.	.
=12	=12	=12	=12	=12	=12	=12	=12	=12
2D	sans	vous	1f	chan-	ran-	1a	.	.
2F	.	.	.	.	.	.	.	.
1C	.	.	2e	.	.	2g	chan-	ran-
.	.	.	2c	.	.	2e	.	.
1BB-	chan-	ran-	1d	.	.	2.f	.	.
.	.	.	.	.	.	4g	.	.
=13	=13	=13	=13	=13	=13	=13	=13	=13
1.C	.	.	0c	.	.	2.e	.	.
.	.	.	.	.	.	4f	.	.
.	.	.	.	.	.	2g	.	.
1c	.	.	.	.	.	2c	.	.
.	.	.	2e	.	.	2cc	.	.
2B-	.	.	2f	.	.	2dd	.	.
=14	=14	=14	=14	=14	=14	=14	=14	=14
2G	.	.	1g	.	.	2ee	.	.
1B-	.	.	.	.	.	2.dd	.	.
.	.	.	2f	.	.	.	.	.
.	.	.	.	.	.	4cc	.	.
2c	.	.	2e	.	.	1cc	.	.
1G	.	.	1d	.	.	.	.	.
.	.	.	.	.	.	2b	.	.
=15	=15	=15	=15	=15	=15	=15	=15	=15
0C	-ger	-ger	0c	-ger	-ger	1cc	-ger	-ger
.	.	.	.	.	.	1r	.	.
1C	Ne	Car	2r	.	.	1g	Ne	Car
.	.	.	[2c	Ne	Car	.	.	.
=16	=16	=16	=16	=16	=16	=16	=16	=16
1F	vous	vous	2c]	.	.	1a	vous	vous
.	.	.	1d	vous	vous	.	.	.
1G	vueil-	pou-	.	.	.	1b	vueil-	pou-
.	.	.	1e	vueil-	pou-	.	.	.
1A	-lez	-vez	.	.	.	[1cc	-lez	-vez
.	.	.	2c	.	.	.	.	.
=17	=17	=17	=17	=17	=17	=17	=17	=17
2r	.	.	2e	-lez	-vez	2cc]	.	.
2D	plus	bien	2f	.	.	2a	plus	bien
2G	.	.	2g	.	.	2b	.	.
2c	.	.	2e	plus	bien	2cc	.	.
2B-	.	.	2f	.	.	1dd	.	.
2G	.	.	[2g	.	.	.	.	.
=18	=18	=18	=18	=18	=18	=18	=18	=18
4c	es-	sans	2g]	.	.	2g	es-	sans
4B-	.	.	.	.	.	.	.	.
2A	.	.	2c	es-	sans	2a	.	.
2G	-tran-	dan-	2d	.	.	2b	.	.
2c	.	.	2e	.	.	1cc	-tran-	dan-
1F	.	.	1f	-tran-	dan-	.	.	.
.	.	.	.	.	.	4b	.	.
.	.	.	.	.	.	4a	.	.
=19	=19	=19	=19	=19	=19	=19	=19	=19
2C	.	.	2e	.	.	2g	.	.
2F	.	.	2c	.	.	2.a	.	.
2D	.	.	2d	.	.	.	.	.
.	.	.	.	.	.	4g	.	.
2G	.	.	4c	.	.	1g	.	.
.	.	.	4B-	.	.	.	.	.
1D	-ger	-gier	1A	.	.	.	.	.
.	.	.	.	.	.	2f#i	.	.
=20	=20	=20	=20	=20	=20	=20	=20	=20
1.d	Car	Me	0.G	-ger	-gier	0.g	-ger	-gier
2.B-	.	fai-	.	.	.	.	.	.
4c	.	.	.	.	.	.	.	.
2d	.	.	.	.	.	.	.	.
=21	=21	=21	=21	=21	=21	=21	=21	=21
1G	.	.	1g	Car	Me	0.r	.	.
2E	.	.	2g	je	fai-	.	.	.
2F	.	.	1a	vous	.	.	.	.
1D	je	.	.	.	.	.	.	.
.	.	.	4g	.	.	.	.	.
.	.	.	4f	.	.	.	.	.
=22	=22	=22	=22	=22	=22	=22	=22	=22
1C	vous	-re	2.e	.	.	1g	Car	Me
.	.	.	4f	.	.	.	.	.
1r	.	.	2g	.	.	2g	je	fai-
.	.	.	2c	.	.	1a	vous	.
1r	.	.	1d	.	.	.	.	.
.	.	.	.	.	.	4g	.	.
.	.	.	.	.	.	4f	.	.
=23	=23	=23	=23	=23	=23	=23	=23	=23
0C	lai-	plai-	0c	.	-re	2.e	.	.
.	.	.	.	.	.	4f	.	.
.	.	.	.	.	.	2g	.	.
.	.	.	.	.	.	2c	.	.
1BB-	.	.	2.f	lai-	plai-	1d	.	.
.	.	.	4g	.	.	.	.	.
=24	=24	=24	=24	=24	=24	=24	=24	=24
2F	-roye,	-sir,	2a	.	.	0c	.	-re
2E	.	.	1g	.	.	.	.	.
1C	.	.	.	.	.	.	.	.
.	.	.	4f	.	.	.	.	.
.	.	.	4e	.	.	.	.	.
1BB-	.	.	1d	.	.	2.f	lai-	plai-
.	.	.	.	.	.	4g	.	.
=25	=25	=25	=25	=25	=25	=25	=25	=25
1r	.	.	2.c	.	.	2a	.	.
.	.	.	.	.	.	1g	.	.
.	.	.	4B-	.	.	.	.	.
1C	lai-	plai-	2G	.	.	.	.	.
.	.	.	1c	.	.	4f	.	.
.	.	.	.	.	.	4e	.	.
1G	.	.	.	.	.	1d	.	.
.	.	.	2Bni	.	.	.	.	.
=26	=26	=26	=26	=26	=26	=26	=26	=26
0C	-ro-	-sir	0c	-roye	-sir	1.e	-roye	-sir
.	.	.	.	.	.	2c	.	.
1C	-ye	.	1r	.	.	1c	.	.
=27	=27	=27	=27	=27	=27	=27	=27	=27
1C	sur	et	1c	sur	et	2r	.	.
.	.	.	.	.	.	1cc	sur	et
1c	.	.	1e	.	.	.	.	.
.	.	.	.	.	.	2b	.	.
1d	.	.	1f	.	.	1a	.	.
=28	=28	=28	=28	=28	=28	=28	=28	=28
2G	.	.	2g	.	.	1g	.	.
1c	.	.	1e	.	.	.	.	.
.	.	.	.	.	.	1cc	.	.
4B-	.	.	4d	.	.	.	.	.
4A	.	.	4c	.	.	.	.	.
1G	mon	sans	1Bni	mon	sans	1dd	mon	sans
=29	=29	=29	=29	=29	=29	=29	=29	=29
2C	a-	blas-	2.c	a-	blas-	1ee	a-	blas-
1c	.	.	.	.	.	.	.	.
.	.	.	4d	.	.	.	.	.
.	.	.	2e	.	.	2cc	.	.
2B-	.	.	2f	.	.	1dd	.	.
2G	.	.	1g	.	.	.	.	.
4c	.	.	.	.	.	2g	.	.
4B-	.	.	.	.	.	.	.	.
=30	=30	=30	=30	=30	=30	=30	=30	=30
2A	.	.	2c	.	.	2a	.	.
2G	.	.	2d	.	.	2b	.	.
2r	.	.	2.e	.	.	2g	.	.
2C	.	.	.	.	.	2cc	.	.
.	.	.	8dL	.	.	.	.	.
.	.	.	8cJ	.	.	.	.	.
2G	.	.	2Bni	.	.	2dd	.	.
2C	.	.	[2c	.	.	[2ee	.	.
=31	=31	=31	=31	=31	=31	=31	=31	=31
2r	.	.	2c]	.	.	4ee]	.	.
.	.	.	.	.	.	4cc	.	.
2G	.	.	2G	.	.	2.dd	.	.
2E	.	.	2c	.	.	.	.	.
.	.	.	.	.	.	4cc	.	.
2C	.	.	2e	.	.	1cc	.	.
1G	.	.	1d	.	.	.	.	.
.	.	.	.	.	.	2b	.	.
=32	=32	=32	=32	=32	=32	=32	=32	=32
0.Cl	-me	-me	0.cl	-me	-me	0.ccl	-me	-me
!!LO:LB:i:g=z
=33||	=33||	=33||	=33||	=33||	=33||	=33||	=33||	=33||
*>B	*>B	*>B	*>B	*>B	*>B	*>B	*>B	*>B
*clefF4	*	*	*clefGv2	*	*	*clefG2	*	*
*k[]	*	*	*k[]	*	*	*k[]	*	*
*M2/1	*	*	*M2/1	*	*	*M2/1	*	*
*met(C|)	*	*	*met(C|)	*	*	*met(C|)	*	*
[0C	-Fait	Mays	0r	.	.	0cc	-Fait	Mays
=34	=34	=34	=34	=34	=34	=34	=34	=34
0C]	.	.	0c	-Fait	Mays	1.cc	m'a-	pen-
.	.	.	.	.	.	2b	.	.
=35	=35	=35	=35	=35	=35	=35	=35	=35
1F	m'a-	pen-	1.c	m'a-	pen-	1a	-vez	-sez
2C	.	.	.	.	.	1g	.	.
2G	.	.	2B	.	.	.	.	.
=36	=36	=36	=36	=36	=36	=36	=36	=36
2A	.	.	1A	-vez	-sez	1cc	.	.
2c	.	.	.	.	.	.	.	.
2.B	.	.	1G	.	.	1dd	.	.
4A	.	.	.	.	.	.	.	.
=37	=37	=37	=37	=37	=37	=37	=37	=37
1c	-vez	-sez	0g	.	.	1.ee	.	.
1G	a-	pour	.	.	.	.	.	.
.	.	.	.	.	.	[2dd	a-	pour
=38	=38	=38	=38	=38	=38	=38	=38	=38
0d	.	.	0f	a-	pour	2dd]	.	.
.	.	.	.	.	.	4cc	.	.
.	.	.	.	.	.	4b	.	.
.	.	.	.	.	.	1a	.	.
=39	=39	=39	=39	=39	=39	=39	=39	=39
1e	-ler	l'ad-	1g	-ler	l'ad-	1g	-ler	l'ad-
1c	et	.	1e	et	.	[1cc	et	.
=40	=40	=40	=40	=40	=40	=40	=40	=40
0G	ve-	-ve-	0d	ve-	-ve-	2cc]	.	.
.	.	.	.	.	.	2b	.	.
.	.	.	.	.	.	2b	ve-	-ve-
.	.	.	.	.	.	2a	.	.
=41	=41	=41	=41	=41	=41	=41	=41	=41
1.A	-nir	-nir	0c	-nir	-nir	[0cc	-nir	-nir
4G	.	.	.	.	.	.	.	.
4F	.	.	.	.	.	.	.	.
=42	=42	=42	=42	=42	=42	=42	=42	=42
2E	.	.	1r	.	.	0cc]	.	.
1F	.	.	.	.	.	.	.	.
.	.	.	1c	Trop	Gi-	.	.	.
4G	.	.	.	.	.	.	.	.
4A	.	.	.	.	.	.	.	.
=43	=43	=43	=43	=43	=43	=43	=43	=43
1G	.	.	1d	.	-ray	1r	.	.
2r	.	.	1e	.	.	1g	Trop	Gi-
2C	Trop	Gi-	.	.	.	.	.	.
=44	=44	=44	=44	=44	=44	=44	=44	=44
2F	.	-ray	1c	de	ail-	1a	.	-ray
2A	.	.	.	.	.	.	.	.
1G	de	ail-	[1g	foix	-leurs	1b	.	.
=45	=45	=45	=45	=45	=45	=45	=45	=45
2c	foix	-leurs	2g]	.	.	1g	de	ail-
2e	.	.	2e	.	.	.	.	.
1d	.	.	1f	.	.	[1dd	foix	-leurs
=46	=46	=46	=46	=46	=46	=46	=46	=46
1G	.	.	1g	.	.	2dd]	.	.
.	.	.	.	.	.	2b	.	.
1A	.	.	2e	.	.	1cc	.	.
.	.	.	2c	.	.	.	.	.
=47	=47	=47	=47	=47	=47	=47	=47	=47
2G	.	.	2d	.	.	2b	.	.
1E	.	.	2e	.	.	1g	.	.
.	.	.	1c	.	.	.	.	.
2F	.	.	.	.	.	[2a	.	.
=48	=48	=48	=48	=48	=48	=48	=48	=48
2D	.	.	2d	.	.	4a]	.	.
.	.	.	.	.	.	4g	.	.
2G	.	.	2B	.	.	1g	.	.
1D	.	.	1A	.	.	.	.	.
.	.	.	.	.	.	2f#i	.	.
=49	=49	=49	=49	=49	=49	=49	=49	=49
1.E	.	.	0G	.	.	[0e [0g	.	.
2C	.	.	.	.	.	.	.	.
=50	=50	=50	=50	=50	=50	=50	=50	=50
1C	.	.	[0c	.	.	0e] 0g]	.	.
2r	.	.	.	.	.	.	.	.
[2C	sans	ou	.	.	.	.	.	.
=51	=51	=51	=51	=51	=51	=51	=51	=51
2C]	.	.	0c]	.	.	1r	.	.
1F	nul	j'ay	.	.	.	.	.	.
.	.	.	.	.	.	1c	sans	ou
2E	.	.	.	.	.	.	.	.
=52	=52	=52	=52	=52	=52	=52	=52	=52
1D	bien	.	0r	.	.	1f	.	.
1C	.	.	.	.	.	2e	nul	j'ay
.	.	.	.	.	.	[2g	.	.
=53	=53	=53	=53	=53	=53	=53	=53	=53
2r	.	.	1c	sans	ou	2g]	.	.
2C	me	af-	.	.	.	4f	.	.
.	.	.	.	.	.	4e	.	.
2D	fai-	-fai-	1f	.	.	1d	bien	.
2BB	.	.	.	.	.	.	.	.
=54	=54	=54	=54	=54	=54	=54	=54	=54
2C	.	.	2e	nul	j'ay	1c	.	.
1E	.	.	1g	.	.	.	.	.
.	.	.	.	.	.	1r	.	.
4D	.	.	4f	.	.	.	.	.
4C	.	.	4e	.	.	.	.	.
=55	=55	=55	=55	=55	=55	=55	=55	=55
2D	.	.	1d	bien	.	1f	me	af-
2BB	.	.	.	.	.	.	.	.
2C	.	.	[1c	.	.	2e	fai-	-fai-
[2F	.	.	.	.	.	[2a	.	.
=56	=56	=56	=56	=56	=56	=56	=56	=56
2F]	.	.	1c]	.	.	2a]	.	.
2E	.	.	.	.	.	1g	.	.
1C	-re,	-re,	1c	me	af-	.	.	.
.	.	.	.	.	.	2cc	.	.
=57	=57	=57	=57	=57	=57	=57	=57	=57
2r	.	.	1.g	fai-	-fai-	2b	.	.
1c	fai-	af-	.	.	.	1ee	.	.
2G	.	.	4f	.	.	[2dd	.	.
.	.	.	4e	.	.	.	.	.
=58	=58	=58	=58	=58	=58	=58	=58	=58
2B	.	-fai-	2d	.	.	2dd]	.	.
2c	.	.	1g	.	.	4cc	.	.
.	.	.	.	.	.	4b	.	.
1d	.	.	.	.	.	1a	.	.
.	.	.	2f	.	.	.	.	.
=59	=59	=59	=59	=59	=59	=59	=59	=59
2G	.	.	2g	.	.	1g	.	.
1C	.	.	1e	.	.	.	.	.
.	.	.	.	.	.	1cc	.	.
4BB	.	.	4d	.	.	.	.	.
4AA	.	.	4c	.	.	.	.	.
=60	=60	=60	=60	=60	=60	=60	=60	=60
2BB	.	.	2d	.	.	2b	.	.
2C	.	.	1c	.	.	1a	.	.
1D	.	.	.	.	.	.	.	.
.	.	.	2B	.	.	4g	.	.
.	.	.	.	.	.	4f	.	.
=61	=61	=61	=61	=61	=61	=61	=61	=61
0CN	-re&	-re,	0cN	-re&	-re,	[0eN	-re&	-re,
=62	=62	=62	=62	=62	=62	=62	=62	=62
0c	.	ou	1r	.	.	0e]	.	.
.	.	.	1c	.	ou	.	.	.
=63	=63	=63	=63	=63	=63	=63	=63	=63
1B	.	j'ay	1d	.	j'ay	0r	.	.
[1c	.	af-	1c	.	af-	.	.	.
=64	=64	=64	=64	=64	=64	=64	=64	=64
2c]	.	.	1.e	.	-fai-	1r	.	.
4B	.	.	.	.	.	.	.	.
4A	.	.	.	.	.	.	.	.
2G	.	.	.	.	.	1g	.	ou
2E	.	.	2g	.	.	.	.	.
=65	=65	=65	=65	=65	=65	=65	=65	=65
1D	.	.	2.f	.	.	1a	.	j'ay
.	.	.	4e	.	.	.	.	.
[1G	.	-fai-	[1g	.	.	1g	.	af-
=66	=66	=66	=66	=66	=66	=66	=66	=66
2G]	.	.	2g]	.	.	1.b	.	-fai-
2G	.	-re,	4f	.	.	.	.	.
.	.	.	4e	.	.	.	.	.
1G	.	af-	1d	.	-re,	.	.	.
.	.	.	.	.	.	2dd	.	.
=67	=67	=67	=67	=67	=67	=67	=67	=67
1A	.	-fai-	2r	.	.	2.cc	.	.
.	.	.	2e	.	af-	.	.	.
.	.	.	.	.	.	4b	.	.
2B	.	.	2d	.	-fai-	2.dd	.	.
2G	.	.	2g	.	.	.	.	.
.	.	.	.	.	.	4b	.	.
=68	=68	=68	=68	=68	=68	=68	=68	=68
2c	.	.	2e	.	.	2cc	.	.
2B	.	.	2f	.	.	2.dd	.	.
2G	.	.	2g	.	.	.	.	.
.	.	.	.	.	.	4b	.	.
2C	.	.	2e	.	.	2cc	.	.
=69	=69	=69	=69	=69	=69	=69	=69	=69
2r	.	.	2f	.	.	2.dd	.	.
2G	.	.	2g	.	.	.	.	.
.	.	.	.	.	.	4b	.	.
2c	.	.	2e	.	.	2cc	.	.
2B	.	.	2f	.	.	2dd	.	.
=70	=70	=70	=70	=70	=70	=70	=70	=70
2G	.	.	2g	.	.	1.ee	.	.
2A	.	.	1c	.	.	.	.	.
2c	.	.	.	.	.	.	.	.
2G	.	.	2B	.	.	[2dd	.	.
=71	=71	=71	=71	=71	=71	=71	=71	=71
2r	.	.	1c	.	.	2dd]	.	.
2C	.	.	.	.	.	1cc	.	.
1G	.	.	1d	.	.	.	.	.
.	.	.	.	.	.	2b	.	.
=72	=72	=72	=72	=72	=72	=72	=72	=72
*	*	*	*	*	*	*^	*	*
[0Cl	.	-re	[0cl	.	-re	[0cc	2a	.	.
.	.	.	.	.	.	.	2.g	.	.
.	.	.	.	.	.	.	4f	.	.
.	.	.	.	.	.	.	4e	.	.
.	.	.	.	.	.	.	4d	.	.
=73	=73	=73	=73	=73	=73	=73	=73	=73	=73
0C]	.	.	0c]	.	.	0ccl]	0el	.	.
*	*	*	*	*	*	*v	*v	*	*
=||	=||	=||	=||	=||	=||	=||	=||	=||
*-	*-	*-	*-	*-	*-	*-	*-	*-
!!!RDF**kern: l = long note in original notation
!!!RDF**kern: i = editorial accidental
!!!RDF**kern: V = start of tuplet marker
!!!RDF**kern: Z = end of tuplet marker
!!!RDF**kern: N = signum congruentiae
!!!ENC: Jesse Rodin 16 April 2018
!!!END: 2018/04/17
!!!EED: Jesse Rodin
!!!EEV: 2018/07/29
!!!ONB: Translated from MusicXML and edited on 2018/07/29/ by Craig Sapp
!!muse2ps: C^@{SMS} (@{folio})\nEd. @{EED}^v105,105,150z18i2I150l2600Q16c56
